packages/astro-components-stencil/src/icons/compare.svg

<svg width="24" height="24" viewBox="0 0 24 24" fill="none" xmlns="http://www.w3.org/2000/svg">
<path fill-rule="evenodd" clip-rule="evenodd" d="M10 3H5C3.9 3 3 3.9 3 5V19C3 20.1 3.9 21 5 21H10V22C10 22.55 10.45 23 11 23C11.55 23 12 22.55 12 22V2C12 1.45 11.55 1 11 1C10.45 1 10 1.45 10 2V3ZM10 18H5L10 12V18ZM14 3H19C20.1 3 21 3.9 21 5V19C21 20.1 20.1 21 19 21H14V12L19 18V6C19 5.45 18.55 5 18 5H14V3Z" fill="black"/>
</svg>

<svg xmlns="http://www.w3.org/2000/svg" viewBox="0 0 24 24"><g xmlns="http://www.w3.org/2000/svg" id="compare" fill-rule="nonzero">
            <path d="M10 3H5c-1.1 0-2 .9-2 2v14c0 1.1.9 2 2 2h5v1c0 .55.45 1 1 1s1-.45 1-1V2c0-.55-.45-1-1-1s-1 .45-1 1v1zm0 15H5l5-6v6zm9-15h-5v2h4c.55 0 1 .45 1 1v12l-5-6v9h5c1.1 0 2-.9 2-2V5c0-1.1-.9-2-2-2z"/>
        </g></svg>
